X:880
T:Humors of Castlefin
R:reel
Z:transcribed by Dave Marshall
M:C|
K:Edor
|: B~E3 BEGB | AD (3DDD FAdc | B~E3 BAGF | GBAG EFGA |
B~E3 BEGB | AD (3DDD FAdc | B~E3 BAGF |1 GBAG E2 dc :|2 GBAG E4 |
|: Beed effe | defg afed | Beed e~f3 | agfa gfed |
Beed effe | defg afdf | efga bagf | egfd e2dc :|
